X: 74
M:C|
L:1/8
K:D
vF/E/|\
|:uf|\
a2ag f2fe | defd BAFA | dgg2 bgg2 | a2af gfed |
dFF2 AFAB | defd g2fe | dedB A2gb | afeg fd d :|


